!!!OTL: Volksmeldie des 14. Jahrhunderts. / (Her Conrat lafsent uwern gugken fin.)
!!!ARE: Europa, Mitteleuropa, Deutschland
!!!SCT: A0302
!!!YEM: Copyright 1995, estate of Helmut Schaffrath.
**kern
*M3/4
*met(3)
*k[]
*C:
=1
{(2c
4d)
=2
(2e
4c)
=3
4f
4e
4d
=4
8cL
8dJ
2c}
=5||
{8gL
8gJ
8eL
8fJ
8eL
8dJ
=6
8cL
8dJ
2c
=7||
2cc
8bL
8aJ
=8
8gL
8aJ
2g}
=9
{8gL
8aJ
8gL
8fJ
8eL
8dJ
=10
8cL
8dJ
!LO:TX:a:t=P:2c in the source:problem
!LO:N:vis=2
4c
4g
=11
4a
8gL
8fJ
4e
=12
4f
4e
4d
=13
8cL
8dJ
2c}
==
!!!GTL: Tanz- und Kranzlieder
!!!AGN: Romanze, Ballade, Lied
!! Musikal. Lehrcompendium des H. de Zeelandia (15.Jh). Mitgetheilt
!!    in W. Ambros, Gesch. d. Musik II, 277.
!!!ONB: ESAC (Essen Associative Code) Database: ALTDEU
!!!AMT: simple triple
!!!AIN: vox
!!!EED: Helmut Schaffrath
!!!EEV: 1.0
!!@@COMMENT: "Uebertragung von Boehme"
!!@@END:
!!!URL-scan: https://rosdok.uni-rostock.de/mcrviewer/recordIdentifier/rosdok_ppn738218359/iview2/phys_0459.iview2?x=-495.6391625615763&y=1491.7640394303016&scale=0.4629418472063854&rotation=0&layout=singlePageLayout&logicalDiv=log_0012
!!!ENC: Anna Maria Matuszewska
!!!EEV: 2024/12/03
*-
